src/icons/main-share.svg

<svg enable-background="new 0 0 14 14" viewBox="0 0 14 14" xmlns="http://www.w3.org/2000/svg"><path d="m10.5 12.6h-9.1v-9.1h6.1l1.4-1.4h-8.2c-.4 0-.7.3-.7.7v10.5c0 .4.3.7.7.7h10.5c.4 0 .7-.3.7-.7v-8.2l-1.4 1.4zm2.8-12.6h-4.9c-.4 0-.7.3-.7.7s.3.7.7.7h3.2l-5.1 5.1c-.1.1-.2.3-.2.5 0 .4.3.7.7.7.2 0 .4-.1.5-.2l5.1-5.1v3.2c0 .4.3.7.7.7s.7-.3.7-.7v-4.9c0-.4-.3-.7-.7-.7z" fill="#4d5969"/></svg>

<svg viewBox="0 0 14 14" xmlns="http://www.w3.org/2000/svg"><path d="M10.5 12.6H1.4V3.5h6.1l1.4-1.4H.7c-.4 0-.7.3-.7.7v10.5c0 .4.3.7.7.7h10.5c.4 0 .7-.3.7-.7V5.1l-1.4 1.4zM13.3 0H8.4c-.4 0-.7.3-.7.7s.3.7.7.7h3.2L6.5 6.5c-.1.1-.2.3-.2.5 0 .4.3.7.7.7.2 0 .4-.1.5-.2l5.1-5.1v3.2c0 .4.3.7.7.7s.7-.3.7-.7V.7c0-.4-.3-.7-.7-.7z" fill="#4d5969"/></svg>
